Avidclan_Website/assets/images/icons/reliable-ic.svg

<?xml version="1.0" encoding="utf-8"?>
<!-- Generator: Adobe Illustrator 24.1.1, SVG Export Plug-In . SVG Version: 6.00 Build 0)  -->
<svg version="1.1" id="Layer_1" xmlns="http://www.w3.org/2000/svg" xmlns:xlink="http://www.w3.org/1999/xlink" x="0px" y="0px"
	 viewBox="0 0 449.9 355.7" style="enable-background:new 0 0 449.9 355.7;" xml:space="preserve">
<style type="text/css">
	.st0{fill:#007AFB;}
</style>
<g>
	<path class="st0" d="M159.1,99.5c-4.3-4.3-11.4-4.3-16.1,0l-48.3,48.3l-20.4-20.4c-4.3-4.3-11.4-4.3-16.1,0
		c-4.3,4.3-4.3,11.4,0,16.1l27.9,27.9c2.4,2.4,5.2,3.3,8.1,3.3c2.8,0,5.7-0.9,8.1-3.3l56.4-56.4C163.9,110.8,163.9,103.7,159.1,99.5
		L159.1,99.5z"/>
	<path class="st0" d="M439.5,223.5c6.6-5.7,10.4-14.2,10.4-23.7c0-17.5-14.2-31.7-31.7-31.7c-5.2,0-18.9,0-33.2,0.5
		c-14.7,0-30.3,0.5-36.5,0.5c-1.4,0-2.4,0-2.8-0.5c-0.5-0.5-0.5-0.9-0.5-1.4c5.2-21.8,11.4-50.2,13.3-59.7
		c3.3-16.6-6.2-31.3-23.7-36c-17.5-5.2-34.6,2.4-40.7,16.6c-8.5,21.3-36.9,73.4-66.8,91.9c-0.5,0-0.5,0.5-0.9,0.5
		c-4.3-3.3-9.9-5.2-15.6-5.2h-0.9c4.7-12.3,8.1-25.6,8.1-39.8l0-70.1c0-5.7-4.3-10.4-9.9-11.4c-68.2-7.1-88.1-45.9-88.6-47.8
		c-1.9-3.8-5.7-6.2-9.9-6.2s-8.1,2.4-9.9,6.2C98.5,8.1,78.6,46.9,10.9,54C4.3,54.9,0,59.7,0,65.4v70.1c0,82.9,99.5,135,103.7,137.3
		c1.4,0.9,3.3,1.4,5.2,1.4s3.3-0.5,5.2-1.4c1.4-0.9,13.7-7.6,29.4-18.9v65.4c0,14.7,11.8,26.5,26.5,26.5h41.2
		c7.6,0,14.2-2.8,18.9-8.1c13.7,9.5,36.9,18,63,18h109.4c17.5,0,31.7-14.2,31.7-31.7c0-6.6-1.9-12.8-5.2-17.5
		c6.6-5.7,10.4-14.2,10.4-23.7c0-6.6-1.9-12.8-5.2-17.5c6.6-5.7,10.4-14.2,10.4-23.7C444.7,234.4,442.8,228.3,439.5,223.5
		L439.5,223.5z M108.9,249.6c-19.4-11.4-86.2-54.9-86.2-114.1V75.3c47.8-7.1,73.9-29.4,86.7-44c12.8,15.2,38.8,36.9,86.7,44l0,60.1
		c0,14.2-3.8,27.5-9.9,39.8H171c-14.7,0-26.5,11.8-26.5,26.5v23.7C129.8,236.8,116,245.3,108.9,249.6L108.9,249.6z M215.5,319.2
		c0,2.4-1.9,4.3-4.3,4.3H170c-2.4,0-4.3-1.9-4.3-4.3V201.3c0-2.4,1.9-4.3,4.3-4.3h41.2c2.4,0,4.3,1.9,4.3,4.3V319.2z M418.2,209.3
		h-13.3c-6.2,0-10.9,4.7-10.9,10.9s4.7,10.9,10.9,10.9h8.1c5.2,0,9.5,4.3,9.5,9.5c0,5.2-4.3,9.5-9.5,9.5h-12.8
		c-6.2,0-10.9,4.7-10.9,10.9c0,6.2,4.7,10.9,10.9,10.9h8.1c5.2,0,9.5,4.3,9.5,9.5c0,5.2-4.3,9.5-9.5,9.5h-12.8
		c-6.2,0-10.9,4.7-10.9,10.9c0,6.2,4.7,10.9,10.9,10.9h8.1c5.2,0,9.5,4.3,9.5,9.5c0,5.2-4.3,9.5-9.5,9.5l-110.3,0
		c-30.3,0-51.1-13.3-55.4-18V198.4c0-0.9,0.5-1.9,1.4-2.4c37.9-23.2,68.2-83.4,75.8-102.8c1.9-4.3,8.5-5.2,13.7-3.8
		c3.3,0.9,9.5,3.8,8.1,10.9c-1.4,7.1-6.2,27.9-12.8,58.7c-1.4,7.1,0,14.2,4.7,19.9c4.7,5.7,11.4,9,18.5,9c5.2,0,21.8,0,38.4-0.5
		c13.7,0,27.5-0.5,32.7-0.5c5.2,0,9.5,4.3,9.5,9.5C427.6,205.1,423.4,209.3,418.2,209.3L418.2,209.3z"/>
</g>
</svg>

<svg width="450" height="356" viewBox="0 0 450 356" fill="none" xmlns="http://www.w3.org/2000/svg">
<g clip-path="url(#clip0_493_934)">
<path d="M159.1 99.5C154.8 95.2 147.7 95.2 143 99.5L94.7 147.8L74.3 127.4C70 123.1 62.9 123.1 58.2 127.4C53.9 131.7 53.9 138.8 58.2 143.5L86.1 171.4C88.5 173.8 91.3 174.7 94.2 174.7C97 174.7 99.9 173.8 102.3 171.4L158.7 115C163.9 110.8 163.9 103.7 159.1 99.5Z" fill="#0E53BE"/>
<path d="M439.5 223.5C446.1 217.8 449.9 209.3 449.9 199.8C449.9 182.3 435.7 168.1 418.2 168.1C413 168.1 399.3 168.1 385 168.6C370.3 168.6 354.7 169.1 348.5 169.1C347.1 169.1 346.1 169.1 345.7 168.6C345.2 168.1 345.2 167.7 345.2 167.2C350.4 145.4 356.6 117 358.5 107.5C361.8 90.9 352.3 76.2 334.8 71.5C317.3 66.3 300.2 73.9 294.1 88.1C285.6 109.4 257.2 161.5 227.3 180C226.8 180 226.8 180.5 226.4 180.5C222.1 177.2 216.5 175.3 210.8 175.3H209.9C214.6 163 218 149.7 218 135.5V65.4C218 59.7 213.7 55 208.1 54C139.9 46.9 120 8.1 119.5 6.2C117.6 2.4 113.8 0 109.6 0C105.4 0 101.5 2.4 99.7 6.2C98.5 8.1 78.6 46.9 10.9 54C4.3 54.9 0 59.7 0 65.4V135.5C0 218.4 99.5 270.5 103.7 272.8C105.1 273.7 107 274.2 108.9 274.2C110.8 274.2 112.2 273.7 114.1 272.8C115.5 271.9 127.8 265.2 143.5 253.9V319.3C143.5 334 155.3 345.8 170 345.8H211.2C218.8 345.8 225.4 343 230.1 337.7C243.8 347.2 267 355.7 293.1 355.7H402.5C420 355.7 434.2 341.5 434.2 324C434.2 317.4 432.3 311.2 429 306.5C435.6 300.8 439.4 292.3 439.4 282.8C439.4 276.2 437.5 270 434.2 265.3C440.8 259.6 444.6 251.1 444.6 241.6C444.7 234.4 442.8 228.3 439.5 223.5ZM108.9 249.6C89.5 238.2 22.7 194.7 22.7 135.5V75.3C70.5 68.2 96.6 45.9 109.4 31.3C122.2 46.5 148.2 68.2 196.1 75.3V135.4C196.1 149.6 192.3 162.9 186.2 175.2H171C156.3 175.2 144.5 187 144.5 201.7V225.4C129.8 236.8 116 245.3 108.9 249.6ZM215.5 319.2C215.5 321.6 213.6 323.5 211.2 323.5H170C167.6 323.5 165.7 321.6 165.7 319.2V201.3C165.7 198.9 167.6 197 170 197H211.2C213.6 197 215.5 198.9 215.5 201.3V319.2ZM418.2 209.3H404.9C398.7 209.3 394 214 394 220.2C394 226.4 398.7 231.1 404.9 231.1H413C418.2 231.1 422.5 235.4 422.5 240.6C422.5 245.8 418.2 250.1 413 250.1H400.2C394 250.1 389.3 254.8 389.3 261C389.3 267.2 394 271.9 400.2 271.9H408.3C413.5 271.9 417.8 276.2 417.8 281.4C417.8 286.6 413.5 290.9 408.3 290.9H395.5C389.3 290.9 384.6 295.6 384.6 301.8C384.6 308 389.3 312.7 395.5 312.7H403.6C408.8 312.7 413.1 317 413.1 322.2C413.1 327.4 408.8 331.7 403.6 331.7H293.3C263 331.7 242.2 318.4 237.9 313.7V198.4C237.9 197.5 238.4 196.5 239.3 196C277.2 172.8 307.5 112.6 315.1 93.2C317 88.9 323.6 88 328.8 89.4C332.1 90.3 338.3 93.2 336.9 100.3C335.5 107.4 330.7 128.2 324.1 159C322.7 166.1 324.1 173.2 328.8 178.9C333.5 184.6 340.2 187.9 347.3 187.9C352.5 187.9 369.1 187.9 385.7 187.4C399.4 187.4 413.2 186.9 418.4 186.9C423.6 186.9 427.9 191.2 427.9 196.4C427.6 205.1 423.4 209.3 418.2 209.3Z" fill="#0E53BE"/>
</g>
<defs>
<clipPath id="clip0_493_934">
<rect width="449.9" height="355.7" fill="white"/>
</clipPath>
</defs>
</svg>
